X: 22
T:Catching Of Fleas
M:6/8
L:1/8
K:F
c| A>GF c2 f| e>dc g>fe| fcA gec| ag>f f2 c| A>GF c2 f| e>dc g>fe |fcA gec| ag>f f2:|A |g>ag e>fd ^cAd cAf| dBe/2f/2 gef/2g/2 | ag>f f2 a2| g>af e/2f/2gA| d/2e/2fd c/2d/2 eA| g/2a/2bg a>gf/2e/2|f e2 d2:|

